X:1
T: Miss Margaret Gordon of Lessmore's Reel
C:R. Mackintosh
R:Reel
Q: 232
K:C
M:4/4
L:1/8
|:G|c2 GF EC GE|FD fe dA dB|c2 GF EC GE|FA GB cC CG|
c2 GF EC GE|FD fe dA dB|c2 GE FA GB|ce fd ec cf|
ec gc ac gc|BG dB Bc df|ec gc ac gc|Bd Gf ec cf|
ec gc ac gc|BG dB Bc df|ec dB cA af|eg df ec c:|
